!!!CDT:
!!!PTL: Musiche sacre e morali a una, due e tre voci
!!!PPP: Rome
!!!PPR: Lodovico Grignani
!!!PDT: 1640
!!!PUB-format:
!!!RISM: M 1676
!!!AGN: Madrigal
!!!SCT: Tsg03008a
!!!SCA: Tsg03008a
!!!original-voices: 1+bc
!!!extant-voices: 1+bc
!!!complete: Y
!!!final: D
!!!COM: Mazzocchi, Domenico
!!!OTL: Dunque ove tu, Signor, di mille rivi
**kern	**text	**kern	**text
*part2	*part2	*part1	*part1
*staff2	*staff2	*staff1	*staff1
*I"[Basso continuo]	*	*I"[Tenore]	*
*I'Bc	*	*I'T	*
*oclefF4	*	*oclefC4	*
*clefF4	*	*clefGv2	*
*k[]	*	*k[]	*
*C:	*	*C:	*
*omet(C)	*	*omet(C)	*
*M4/4	*	*M4/4	*
=1	=1	=1	=1
!	!	!LO:TX:a: t=OTTAVA. Compuntione nel veder Gierusalemme, o rammentarsi la morte di CHRISTO.	!
[1D	.	1F	Dun-
=2	=2	=2	=2
1D_	.	2F	-que
.	.	4r	.
.	.	8F	o-
.	.	8F	-ve
=3	=3	=3	=3
2D]	.	2.G	tu,
[2C#X	.	.	.
.	.	4A	Si-
=4	=4	=4	=4
4C#]	.	2A	-gnor,
4D	.	.	.
2D	.	8r	.
.	.	8A	di
.	.	8A	mil-
.	.	8B	-le
=5	=5	=5	=5
1AA	.	8.c	ri-
.	.	16G#X	-vi
.	.	8G#i	San-
.	.	8A	-gui-
.	.	2A	-no-
=6	=6	=6	=6
1AA	.	4A	-si
.	.	8E	il
.	.	8E	ter-
.	.	4.E	-ren
.	.	8E	la-
=7	=7	=7	=7
2D	.	4F	-scia-
.	.	8F	-sti
.	.	8E	a-
[2C	.	4G	-sper-
.	.	4G	-so,
=8	=8	=8	=8
4C]	.	8r	.
.	.	8c	D'a-
4BB	.	8.c	-ma-
.	.	16c	-ro
2AA	.	4c#X	pian-
.	.	8c#i	-to
.	.	8B	al-
=9	=9	=9	=9
2FF#X	.	8.d	-men
.	.	16d	due
.	.	8cnXi	fon-
.	.	8B	-ti
2GG	.	4B	vi-
.	.	4B	-vi
=10	=10	=10	=10
1GG	.	4r	.
.	.	8B	In
.	.	8B	sì
.	.	4A	a-
.	.	4B	-cer-
=11	=11	=11	=11
2GG	5-6	8G	-ba
.	.	8G	me-
.	.	4.e	-mo-
[2F	7-6	.	.
.	.	8e	-ria hog-
.	.	8d	-gi io
.	.	8G#X	non
=12	=12	=12	=12
2F]	.	8.AL	ver-
.	.	16BJ	.
.	.	16cL	.
.	.	16B	.
.	.	16BJ	.
.	.	(>16AJL	-so?
2E	4-3	2B)	.
=13	=13	=13	=13
2AA	.	4r	.
.	.	8c#X	Ag-
.	.	8c#i	-ghiac-
[2BB-X	.	(>4c#i	-cia-
.	.	[4d)	.
=14	=14	=14	=14
2BB-]	.	4d]	.
.	.	8G	-to
.	.	8F	mio
2AA	.	2A	cor,
=15	=15	=15	=15
1AA	.	8r	.
.	.	8e	ché
.	.	8c#X	non
.	.	8B	de-
.	.	4A	-ri-
.	.	8A	-vi
.	.	8G	Per
=16	=16	=16	=16
2AA	.	8F#X	gli oc-
.	.	8E	-chi,
.	.	8r	.
.	.	8E	e
[2D	.	4F#i	stil-
.	.	8F#i	-li
.	.	8A	in
=17	=17	=17	=17
1D]	6-4	(>4.G#X	la-
.	.	8A)	.
.	.	4.B	.
.	.	8B	-gri-
=18	=18	=18	=18
1C	7-6	2B	-me
.	.	16AL	con-
.	.	8.BJ	.
.	.	16cL	.
.	.	8.AJ	.
=19	=19	=19	=19
2BB	7	16dL	-ver-
.	.	8.BJ	.
.	.	16cL	.
.	.	8.dJ	.
2GG#X	.	16eL	.
.	.	8.dJ	.
.	.	16cL	.
.	.	8.BJ	.
=20	=20	=20	=20
2AA	.	16cL	.
.	.	8.BJ	.
.	.	16AL	.
.	.	8.GJ	.
2C	.	16AL	.
.	.	8.F#XJ	.
.	.	16GL	.
.	.	8.EJ	.
=21	=21	=21	=21
2BB	.	4F#X	.
.	.	4F#i	-so?
2r	.	2r	.
=22	=22	=22	=22
1BB	#-5	4d	Du-
.	.	8d	-ro
.	.	8d	mio
.	.	2d	cor,
=23	=23	=23	=23
1BB	.	8r	.
.	.	8f#X	ché
.	.	8d	non
.	.	8c	ti
.	.	4B	spe-
.	.	4F#X	-tri,
=24	=24	=24	=24
2GG#X	5	8r	.
.	.	8e	ché
.	.	8c	non
.	.	8B	ti
[2AA	.	4c	spe-
.	.	4A	-tri,
=25	=25	=25	=25
2AA]	.	8r	.
.	.	8G	e
.	.	4D#X	fran-
2BB	.	4D#i	-gi?
.	.	4r	.
=26	=26	=26	=26
2BB	.	4B	Pian-
.	.	8B	-ger
.	.	8B	ben
2C	.	4B	mer-
.	.	8B	-ti
.	.	8A	o-
=27	=27	=27	=27
2.GG#X	.	2B	-gn'hor,
.	.	4e	<Pian-
4AA	.	8e	-ger
.	.	8e	ben
=28	=28	=28	=28
2FF	.	4e	mer-
.	.	8e	-ti
.	.	8d	o-
2EE	.	4e	-gn'hor,>
.	.	[4B	s'ho-
=29	=29	=29	=29
2D	.	4B]	.
.	.	8c	-ra
.	.	8d	non
2E	.	4.c	pian-
.	.	(>8B	-gi,
=30	=30	=30	=30
1AA	.	2A)	.
.	.	2r	.
=31	=31	=31	=31
2AA	6	4A	Pian-
.	.	8A	-ger
.	.	8A	ben
2BB-X	.	4A	mer-
.	.	8A	-ti
.	.	8G	o-
=32	=32	=32	=32
2AA	.	4A	-gn'hor,
.	.	2F	s'ho-
2GG	.	.	.
.	.	8G	-ra
.	.	8B-X	non
=33	=33	=33	=33
2AA	.	2E	pian-
2D	.	2D	-gi,
=34	=34	=34	=34
1AA	5-4	4r	.
.	.	4.c	s'ho-
.	.	8c	-ra
.	.	4B-X	non
=35	=35	=35	=35
[1AA	4-3	(<4G	pian-
.	.	4G#X)	.
.	.	[2A)	.
=36	=36	=36	=36
1AA]	.	1A]	.
=37	=37	=37	=37
1Dl	.	1Al	-gi.
==	==	==	==
*-	*-	*-	*-
!!!system-decoration: [*]
!!!RDF**kern: > = above
!!!RDF**kern: < = below
!!!RDF**kern: i = editorial accidental
!!!RDF**kern: l = terminal long
!!!ENC: Emiliano Ricciardi
!!!END: 2019/08/08
!!!EED: Ricciardi, Emiliano
!!!EEV: 2019/08/08
!!!YEC: Copyright 2018 Emiliano Ricciardi, All Rights Reserved
!!!ONB: Translated from MusicXML on 2019/08/08 and edited by Craig Stuart Sapp
!!@@BEGIN:	VERSEDATA
!!@CATALOGNUM:	Tsg03008
!!@LAST_MODIFIED: 2020/07/12
!!@TITLE:		Dunque ove tu, signor di mille rivi
!!@CANTO:		III
!!@OTTAVA:	8
!!@MANUSRC:	G-Al, G-Au, G-Bm, G-Br<sub>1</sub>, G-Br<sub>2</sub>, G-Cv, G-Es<sub>1</sub>, G-Es<sub>2</sub>, G-Es<sub>3</sub>, G-F, G-Fr, G-Fr<sub>1</sub>, G-Fr<sub>2</sub>, G-Mc<sub>1</sub>, G-Mg, G-Mr, G-Mt, G-N, G-Ol
!!@PRINTSRC:	G-1580CM, G-1581B, G-1581CV, G-1581R, G-1581MR, G-1581P, G-1581V, G-1581V<sub>bis</sub>, G-1582C, G-1582M, G-1582MC, G-1582P, G-1582SC, G-1582SC<sub>bis</sub>, G-1583S, G-1584O, G-1584S, G-1585C, G-1585S, G-1588S, G-1589S, G-1590B, G-1590S, G-1592S, G-1593S, G-1594C, G-1595C, G-1597C, G-1598C, G-1599C, G-1600C, G-1600S, G-1601C, G-1601R, G-1602C, G-1604C, G-1604Cl, G-1604F, G-1604P, G-1606B, G-1606B<sub>bis</sub>, G-1606L, G-1607ZR, G-1608DP, G-1609GC, G-1610M, G-1611S, G-1611V, G-1612P, G-1613M, G-1613P, G-1613V, G-1615P, G-1616M, G-1617P, G-1619B, G-1619V, G-1620M, G-1620S, G-1621R, G-1624I, G-1624MT, G-1625C, G-1625S, G-1625SS, G-1626C, G-1626Co, G-1627M, G-1628T, G-1628Tu, G-1630L, G-1630T, G-1632FT, G-1639CF, G-1642M, G-1643I, G-1644P, G-1644S
!!@@BEGIN:	VERSES
!!@ABOUTIT:
!!@ABOUTEN:
!!@EDITOR:	Angelo Solerti
!!@EDITION_TITLE: Gerusalemme liberata. Poema eroico di Torquato Tasso. Edizione critica sui manoscritti e le prime stampe.
!!@EDITION_LOC:	Florence
!!@EDITION_PUB:	G. Barbera
!!@EDITION_DATE:  1895
!!@EDITION_VOL:	2
!!@EDITION_PAGE:  104
!!@TRANSLATOR:	Emiliano Ricciardi and Amyrose McCue Gill
!!@VERSE:
!!	Dunque ove tu, Signor, di mille rivi
!!	Sanguinosi il terren lasciasti asperso,
!!	D’amaro pianto almen duo fonti vivi
!!	In sì acerba memoria oggi io non verso?
!!	Agghiacciato mio cor, ché non derivi
!!	Per gli occhi, e stilli in lagrime converso?
!!	Duro mio cor, ché non ti spetri e frangi?
!!	Pianger ben merti ognor, s’ora non piangi.
!!@MVERSE_DATE: 20230824
!!@NOTE: "ia_og||gi_io" == needs further considering in following markup
!!@MVERSE:
!!	Dun||que_o||ve tu, Sig|nor||, di mil||le ri||vi			=a++
!!	San|gui|no||si_il ter|ren|| la|scia||sti_as|per||so,		=b
!!	D’a|ma||ro pian||to_al|men|| duo fon||ti vi||vi			=a
!!	In sì_ac|er||ba me|mor||ia_og||gi_io non ver||so?		=b
!!	Ag|ghiac|cia||to mio cor, ché non de|ri||vi			=a (+?)
!!	Per gli_oc||chi,_e stil||li_in la||gri|me con|ver||so?		=b
!!	Du||ro mio cor, ché non ti spe||tri_e fran||gi?			=c
!!	Pian||ger ben mer||ti_og|nor||, s’o||ra non pian||gi.		=c
!!@TVERSE:
!!	Therefore where you, Lord, with a thousand bloody
!!	Rivulets left the earth sprinkled,
!!	Do I not pour out in bitter lament from two living founts
!!	In such grievous, raw memory today?
!!	My icy heart, why don’t you become
!!	My eyes and, so transformed, distill tears?
!!	My hard heart, why don’t you soften and break?
!!	Weeping well you merit by now, if now you do not weep.
!!@@END:		VERSES
!!@OTHER_CRIT_ED:  Torquato Tasso, <i>Gerusalemme liberata</i>, ed. Lanfranco Caretti, 2 vols. (Bari: Laterza, 1967).
!!@ATTRIBUTION_ABOUT:
!!@DATING:	mid-1560s through 1570s
!!@DEDICATEE:	Duke Alfonso II d'Este
!!@COMMENTARY:
!!@@END:		VERSEDATA
!!@@BEGIN: SETTING
!!@CATALOGNUM:	Tsg03008a
!!@CANTO:		III
!!@OTTAVA:	8
!!@TITLE:	Dunque ove tu, Signor, di mille rivi
!!@COMPOSER:	Mazzocchi, Domenico
!!@PARTS:		1 of 1
!!@PRINCEPSTITLE:	Musiche sacre e morali a una, due e tre voci
!!@PRINCEPSLOC:	Rome
!!@NORMLOC:	Rome
!!@NORMPUB:	Lodovico Grignani
!!@NORMPUBSHORT:	Grignani
!!@PRINCEPSPUB:	Lodovico Grignani
!!@PRINCEPSYEAR:	1640
!!@PRINCEPSRISM:	M 1676
!!@OVOICES:	1+bc
!!@EXTANTVOICES:	1+bc
!!@OMENSURATION:	C
!!@OCLEFS:	C4,F4
!!@OTIME:		
!!@OKEYSIG:	-
!!@FINAL:		D
!!@TIMPEDITOR:	Ricciardi, Emiliano
!!@REPRINTS:	
!!@@END: SETTING
